!!!SOCIAL_FUNCTION:	songs with hunting dance
!!!PDT:	1956
!!!OTL: No_26_Cypress_Swamp_Hunting_Dance_Song_(a).krn
!!!LANG: Non-Tone
!!!LING_GROUP: Muskogean
!!!REG: Florida
**kern
*staff1
=1-
*clefF4
*k[b-]
*M3/4
2r
4F\
=2!|:
4c\
4c\
(8.c\L
16A\Jk)
=3||
*M2/4
4.A\
8F\
=4||
*M3/4
4A\
8A\
8r
4c\
=5
4A\
4A\
4G\
=6||
*M2/4
2F\
=7||
*M3/4
4F\
4F\
8G\L
8F\J
=8
4A\
(4A\
4G\)
=9
4.F\
8D\
4F\
=10
4F\
4r
8.D\L
16D\Jk
=11||
*M2/4
2F\
=12
4.F\
8D\
=13||
*M3/4
4F\
4F\
8G\L
8F\J
=14
4A\
4A\
4G\
=15||
*M2/4
2F\
=16
4r
4F\
=17:|!
*M3/4
2F\
4F\
=18
2.F\
=19
*M2/4
2c\
=20
4c\
4c\
*-
